svg/double_up.svg

<svg xmlns="http://www.w3.org/2000/svg" viewBox="0 0 32 32" enable-background="new 0 0 32 32"><path d="M 16 4.6875 L 15.28125 5.40625 L 3.78125 16.90625 L 5.21875 18.3125 L 16 7.53125 L 26.78125 18.3125 L 28.21875 16.90625 L 16.71875 5.40625 L 16 4.6875 z M 16 11.6875 L 15.28125 12.40625 L 3.78125 23.90625 L 5.21875 25.3125 L 16 14.53125 L 26.78125 25.3125 L 28.21875 23.90625 L 16.71875 12.40625 L 16 11.6875 z" color="#000" overflow="visible" enable-background="accumulate"/></svg>

<svg xmlns="http://www.w3.org/2000/svg" viewBox="0 0 32 32"><path d="M16 4.688l-.72.718-11.5 11.5 1.44 1.407L16 7.53l10.78 10.782 1.44-1.406-11.5-11.5-.72-.718zm0 7l-.72.718-11.5 11.5 1.44 1.407L16 14.53l10.78 10.783 1.44-1.407-11.5-11.5-.72-.72z"/></svg>
